X:1
T:Llangoedmor, 88.88.88
T:Welsh hymn melody
T:Llangoedmor, 88.88.88
T:Public Domain
C:Welsh hymn melody
Z:Public Domain
%%score ( 1 2 ) ( 3 4 )
L:1/8
M:4/4
K:C
V:1 treble 
V:2 treble 
V:3 bass 
V:4 bass 
V:1
 [Ec]4 [DG]2 [CE]2 | C4 (F3 E) | [CF]2 [B,G]2 [Cc]4 | [Ec]4 [Ge]2 [Gc]2 | A4 (d3 c) | %5
 [GB]2 [^FA]2 G4 | [Gc]4 [Ae]2 [Be]2 | [Ae]4 [Ac]4 | [Ad]2 (GF) [Ec]4 | [EG]4 [FA]2 [Fd]2 | %10
 [Gc]4 G4 | [FA]2 [Fd]2 [Ec]4 | G4 [Ec]2 [Ge]2 | [Gd]4 [Gc]4 | [GB]2 [^FA]2 G4 | [Ge]4 A2 [Fd]2 | %16
 G4 [Ec]4 | [Gc]2 (GF) [Ec]4 |] %18
V:2
 x8 | C4 C4 | x8 | x8 | A4 G4 | x4 G4 | x8 | x8 | x2 d2 x4 | x8 | x4 G4 | x8 | G4 x4 | x8 | x4 G4 | %15
 x4 A2 x2 | G4 x4 | x2 d2 x4 |] %18
V:3
 [C,G,]4 [B,,G,]2 [C,G,]2 | [A,,A,]4 (A,3 G,) | [F,A,]2 [D,F,]2 [E,G,]4 | [C,G,]4 C2 [E,C]2 | %4
 [F,C]4 ([B,,D]3 [C,E]) | [D,D]2 [D,C]2 [G,B,]4 | [E,C]4 [^F,C]2 [^G,B,]2 | [A,C]4 (A,2 G,2) | %8
 [F,D]2 [G,B,]2 [C,C]4 | [C,C]4 [F,C]2 [D,B,]2 | [E,C]4 [C,E]4 | [F,C]2 [D,B,]2 [A,C]4 | %12
 [E,C]4 [C,C]2 C2 | [G,B,]4 ([E,C]2 [C,E]2) | [D,D]2 [D,C]2 [G,B,]4 | [C,C]4 [F,C]2 [D,B,]2 | %16
 [E,C]4 [A,C]4 | [F,C]2 [G,B,]2 [C,C]4 |] %18
V:4
 x8 | x4 C4 | x8 | x4 C2 x2 | x8 | x8 | x8 | x4 E4 | x8 | x8 | x8 | x8 | x6 C2 | x8 | x8 | x8 | %16
 x8 | x8 |] %18

